X: 4188
M: C|
L: 1/8
K: Gm
|:\
d2(BG) ddBG | ccAF f2(=ef) |\
dcBA GBdg | dcBA (BG)G2 ::\
cBAG FGAF |\
[1 DGBG dGBG | dedc BGGF :|\
[2 GABc dcdg | dcBA (BG)G2 |]



